x-pack/platform/plugins/shared/index_management/public/assets/javascript.svg

<svg width="128" height="128" viewBox="0 0 128 128" fill="none" xmlns="http://www.w3.org/2000/svg">
<g clip-path="url(#clip0_693_142215)">
<path d="M0 0.000732422H128V128.001H0V0.000732422Z" fill="#F0DB4F"/>
<path d="M117.525 97.4728C116.587 91.6333 112.78 86.7284 101.5 82.1548C97.5823 80.3542 93.2141 79.0648 91.9125 76.0955C91.4503 74.3675 91.389 73.3941 91.6814 72.3481C92.5209 68.9534 96.573 67.8951 99.7847 68.8685C101.853 69.5618 103.811 71.1558 104.992 73.6988C110.516 70.1221 110.505 70.1456 114.361 67.6875C112.949 65.4984 112.196 64.4881 111.271 63.5515C107.949 59.8409 103.423 57.9298 96.1835 58.0761L92.4125 58.5638C88.799 59.4769 85.3553 61.3736 83.3358 63.9166C77.2765 70.7918 79.0045 82.8245 86.3777 87.7765C93.6415 93.2284 104.312 94.4687 105.675 99.5669C107.001 105.808 101.088 107.829 95.2111 107.111C90.8798 106.21 88.4708 104.009 85.8665 100.006C81.073 102.78 81.073 102.78 76.1446 105.614C77.3133 108.169 78.5414 109.326 80.5005 111.539C89.7724 120.944 112.975 120.482 117.136 106.247C117.305 105.758 118.426 102.498 117.525 97.4728ZM69.5853 58.8296H57.6129L57.5638 89.7826C57.5638 96.3654 57.9043 102.4 56.8338 104.25C55.0822 107.888 50.5434 107.437 48.4749 106.731C46.3696 105.697 45.299 104.225 44.0587 102.146C43.7182 101.548 43.4626 101.086 43.3767 101.051L33.6426 107.012C35.2612 110.334 37.6456 113.217 40.6998 115.09C45.2622 117.829 51.3941 118.668 57.8072 117.196C61.981 115.98 65.5822 113.462 67.4677 109.628C70.1937 104.603 69.6088 98.5198 69.5843 91.7918C69.6456 80.8153 69.5853 69.8409 69.5853 58.8296Z" fill="#323330"/>
</g>
<defs>
<clipPath id="clip0_693_142215">
<rect width="128" height="128" fill="white" transform="translate(0 0.000732422)"/>
</clipPath>
</defs>
</svg>

<svg xmlns="http://www.w3.org/2000/svg" width="128" height="128" fill="none"><g clip-path="url(#a)"><path fill="#F0DB4F" d="M0 0h128v128.001H0z"/><path fill="#323330" d="M117.525 97.473c-.938-5.84-4.745-10.745-16.025-15.318-3.918-1.8-8.286-3.09-9.588-6.06-.462-1.727-.523-2.7-.23-3.747.839-3.395 4.891-4.453 8.103-3.48 2.068.694 4.026 2.288 5.207 4.83 5.524-3.576 5.513-3.552 9.369-6.01-1.412-2.19-2.165-3.2-3.09-4.137-3.322-3.71-7.848-5.621-15.088-5.475l-3.77.488c-3.614.913-7.058 2.81-9.077 5.353-6.06 6.875-4.332 18.908 3.042 23.86 7.263 5.451 17.934 6.692 19.297 11.79 1.326 6.241-4.587 8.262-10.464 7.544-4.331-.901-6.74-3.102-9.344-7.105-4.794 2.774-4.794 2.774-9.722 5.608 1.168 2.555 2.396 3.712 4.356 5.925 9.271 9.405 32.474 8.943 36.635-5.292.169-.489 1.29-3.749.389-8.774M69.585 58.83H57.613l-.05 30.953c0 6.582.341 12.617-.73 14.467-1.75 3.638-6.29 3.187-8.358 2.481-2.105-1.034-3.176-2.506-4.416-4.585-.34-.598-.596-1.06-.682-1.095l-9.734 5.961c1.618 3.322 4.003 6.205 7.057 8.078 4.562 2.739 10.694 3.578 17.107 2.106 4.174-1.216 7.775-3.734 9.66-7.568 2.727-5.025 2.142-11.108 2.117-17.836.062-10.977.001-21.951.001-32.962"/></g><defs><clipPath id="a"><path fill="#fff" d="M0 0h128v128H0z"/></clipPath></defs></svg>
